code/images/jeane.svg

<?xml version="1.0" encoding="UTF-8" standalone="no"?> <!-- Created with Vectornator for iOS (http://vectornator.io/) --><!DOCTYPE svg PUBLIC "-//W3C//DTD SVG 1.1//EN" "http://www.w3.org/Graphics/SVG/1.1/DTD/svg11.dtd">
<svg height="100%" style="fill-rule:nonzero;clip-rule:evenodd;stroke-linecap:round;stroke-linejoin:round;" xmlns:xlink="http://www.w3.org/1999/xlink" xmlns="http://www.w3.org/2000/svg" xml:space="preserve" width="100%" xmlns:vectornator="http://vectornator.io" version="1.1" viewBox="0 0 125 125">
<metadata>
<vectornator:setting key="DimensionsVisible" value="1"/>
<vectornator:setting key="PencilOnly" value="0"/>
<vectornator:setting key="SnapToPoints" value="0"/>
<vectornator:setting key="OutlineMode" value="0"/>
<vectornator:setting key="CMYKEnabledKey" value="0"/>
<vectornator:setting key="RulersVisible" value="1"/>
<vectornator:setting key="SnapToEdges" value="0"/>
<vectornator:setting key="GuidesVisible" value="1"/>
<vectornator:setting key="DisplayWhiteBackground" value="0"/>
<vectornator:setting key="doHistoryDisabled" value="0"/>
<vectornator:setting key="SnapToGuides" value="1"/>
<vectornator:setting key="TimeLapseWatermarkDisabled" value="0"/>
<vectornator:setting key="Units" value="Points"/>
<vectornator:setting key="DynamicGuides" value="0"/>
<vectornator:setting key="IsolateActiveLayer" value="0"/>
<vectornator:setting key="SnapToGrid" value="0"/>
</metadata>
<defs/>
<g id="Layer_141" vectornator:layerName="Layer_141">
<path stroke="#020202" stroke-width="0.75" d="M85.1313+50.7572C85.4118+50.8524+83.4954+54.0057+83.2745+54.543C82.3539+56.7828+81.8108+59.2005+80.9873+61.4723C80.4111+63.0617+79.5825+64.5699+79.1311+66.1967C78.5498+68.2915+77.8155+73.9291+78.6578+75.9286C79.4294+77.76+80.7712+79.536+81.9885+81.0896C82.3589+81.5624+84.5818+85.3665+85.4275+84.6557C86.7766+83.5219+86.2282+81.6516+86.5486+80.1251C86.7638+79.1+87.0645+78.0983+87.3265+77.0858C88.1522+73.8944+88.6899+70.6753+89.8955+67.5851C91.2383+64.1433+92.6647+61.3327+91.8137+57.5871C91.3074+55.3585+89.8228+51.4195+87.4963+50.2562C86.9342+49.9752+86.3121+49.3849+85.5745+49.7475C85.3536+49.8561+84.7824+50.6387+85.1313+50.7572Z" fill="#452e0b" stroke-linecap="butt" opacity="1" stroke-linejoin="miter"/>
<path stroke="#020202" stroke-width="0.75" d="M48.2+79.1C49.4+78.6+51.9+75.6+51.9+75.6C52.6+73.1+53.2+70.6+53.6+68.1C53.9+65.4+54.3+58.2+54.3+58.2L79.5+59.4C79.5+59.4+79.5+66.5+79.5+67.3C79.5+70+79.6+72.6+79.9+75.3C80+77.9+80.9+80.5+82.6+82.5C83.8+83.7+85.1+84.8+86.5+85.8C86.5+85.8+90.9+88.1+92.1+88.9C93.2+89.6+94.3+90.2+95.5+90.7C95.5+90.7+99+98+94.7+104.1C90.4+110.2+76.1+112+67.3+110.1C58.5+108.2+37.2+95.7+40.2+89.7C43.2+83.7+43.6+81.1+48.2+79.1Z" fill="#fce7d4" stroke-linecap="butt" opacity="1" stroke-linejoin="miter"/>
<path stroke="#020202" stroke-width="0.75" d="M118.2+125.6C118+125.6+116.8+114.2+116.5+112.8C116+110.2+115.3+107.7+114.5+105.3C112.6+99.8+109.6+94.5+104.7+92.2C101.5+90.9+98.3+89.4+95.3+87.7C92.9+86.4+90.8+85+88.4+83.7C87.2+83.1+86.7+82.6+85.5+81.9C84.9+81.6+84.3+81.5+83.7+81.1C83.1+80.7+82.6+79+82.2+78.6C81+77.6+80.2+76.2+80+74.7C79.9+74.2+79.7+72.7+79.6+72.1C79.6+71.9+79.2+61.7+79.4+63.1L49.9+59.1L50.3+72.2C50.3+73.1+49.5+74.2+49.7+75.1C49.8+76+49.6+76.9+49.3+77.7C48.8+79.2+46.7+79.4+45.4+80.3C44.1+81.2+43.9+82.6+42.4+83.2C40.9+83.8+39.4+84.6+37.8+85.4C31.1+88.6+30+88.9+23.3+92.1C23+92.2+22.8+92.4+22.5+92.5C19.8+93.8+15.8+95.5+13.2+98.8C10.6+102.1+8.8+116.8+8.1+120.5C7.4+124.2+7+125.5+7+125.5" fill="#f9f7e1" stroke-linecap="butt" opacity="1" stroke-linejoin="miter"/>
<path stroke="#020202" stroke-width="0.75" d="M87.8+43.7C87.8+43.7+87.5+41.5+87.5+41.4C87.3+40.9+87.2+40.4+87+39.9C86.9+39.7+86.8+39.5+86.8+39.3C86.5+37.9+86.1+36.5+85.8+35.1C85.5+33.7+85.2+32.4+84.9+31.1C84+27.2+82.5+22.5+79.6+19.7C77.7+17.9+75+17.2+72.4+17.1C67.7+16.7+63.1+17.6+58.8+19.5C55.1+21.4+51.8+24.1+49.3+27.5C46.6+31.1+46.8+35.5+47.3+39.8C47.7+43+48.4+46.2+49.3+49.3C50.6+53.5+55.2+64.4+55.2+64.4C59+70+65.5+75.9+70.6+74.7C73.4+74.1+75.8+71.9+77.8+70C80+67.9+82.2+65.7+83.5+62.8C84.5+60.3+85.4+57.7+86+55.1C86.5+53.2+86.8+51.3+87+49.4C87.1+48.4+87.8+47.8+87.8+46.9C87.8+46.2+88+46.2+88+45.6C88+45.3+87.9+45+87.8+44.7C87.8+44.5+87.7+44.4+87.7+44.2C87.8+44+87.8+43.8+87.8+43.7Z" fill="#fce7d4" stroke-linecap="butt" opacity="1" stroke-linejoin="miter"/>
<path stroke="#020202" stroke-width="0.75" d="M79.8+100.052L89+109.053C89+109.053+93.8+80.7617+93.9+69.0449C94+52.7557+89.5+37.6096+84.1+25.3212C78.7+13.0329+73.8+13.8902+72.4+13.6044C71+13.3187+69.9+12.4613+68.6+12.3184C61.2+11.8898+53.3+13.6044+48.3+20.6059C43.6+27.3217+37.8+41.3247+37.5+51.041C37.4+53.3272+37.4+55.6134+37.4+58.0425C37.3+65.6156+37.7+73.1886+38.5+80.7617C38.9+84.6197+42.2+95.9078+44+99.1942L44.3+99.6229C45.3+101.338+46.5+102.909+47.8+104.195C49.3+105.91+50.9+107.482+52.6+109.053C53.8+110.197+55+111.34+56.2+112.483C57.2+113.483+58.1+114.483+59.1+115.483C60.1+116.484+61.3+117.341+60.7+114.769C57.7+100.766+45.2021+47.3921+58.8021+29.9598C63.1021+24.1014+67.8+27.0359+71.1+20.0344C72.8+19.1771+74.6+19.1771+76.3+20.1773C77.9+21.1775+79.3+22.7492+80.3+24.8926C81.5+27.1788+82.5+29.7508+83.2+32.4656C84+35.3234+84.7+38.1811+85.2+41.0389C85.7+43.6109+86.1+46.3257+86.4+49.0406C86.8+51.1839+87.2+53.3272+87.4+55.4705C87.4+58.1854+87.2+61.0432+86.8+63.758C86.5+66.4729+86.1+69.0449+85.7+71.7598C84.5+79.7615+83.9+83.6194+82.9+85.7628C81.8+88.1918+80.5+90.478+79.2+92.6214C79.4+92.4785+79.7+99.3371+79.8+100.052Z" fill="#7f500b" stroke-linecap="butt" opacity="1" stroke-linejoin="miter"/>
<path stroke="#020202" stroke-width="0.75" d="M75.5+33.9C75.5+33.9+78.7+32.2+80.2+32.1C81.7+32+83.6+33.8+84.1+34.5" fill="none" stroke-linecap="butt" opacity="1" stroke-linejoin="miter"/>
<path stroke="#020202" stroke-width="0.75" d="M68.7077+64.4C72.1222+65+76.8375+62.6+77.3253+61.5C77.8131+60.4+70.8214+61+67.4069+60.4C63.9923+59.8+62.2038+57.2+61.716+58.2C61.2282+59.2+65.1305+63.8+68.7077+64.4Z" fill="#ffffff" stroke-linecap="butt" opacity="1" stroke-linejoin="miter"/>
<path stroke="#020202" stroke-width="0.75" d="M65.2+34C65.2+34+63+31+60.9+30.4" fill="none" stroke-linecap="butt" opacity="1" stroke-linejoin="miter"/>
<path stroke="#020202" stroke-width="0.75" d="M78+40.7C78+39.3193+78.5373+38.2+79.2+38.2C79.8627+38.2+80.4+39.3193+80.4+40.7C80.4+42.0807+79.8627+43.2+79.2+43.2C78.5373+43.2+78+42.0807+78+40.7Z" fill="#008e19" stroke-linecap="butt" opacity="1" stroke-linejoin="miter"/>
<path stroke="#020202" stroke-width="0.750021" d="M60.8032+40.7656C60.7403+39.4969+61.2706+38.4395+61.9877+38.4039C62.7048+38.3684+63.3372+39.368+63.4001+40.6368C63.4631+41.9055+62.9327+42.9628+62.2156+42.9984C61.4985+43.034+60.8662+42.0343+60.8032+40.7656Z" fill="#008e19" stroke-linecap="butt" opacity="1" stroke-linejoin="miter"/>
<path stroke="#020202" stroke-width="0.75" d="M69+43.8C70.2+49.4+74.5+50+74.6+52C74.8+55+70.3+54.9+68+53.8" fill="none" stroke-linecap="butt" opacity="1" stroke-linejoin="miter"/>
<path stroke="#000000" stroke-width="0.75" d="M78.8+48.4L78.8+49" fill="none" stroke-linecap="butt" opacity="1" stroke-linejoin="miter"/>
<path stroke="#000000" stroke-width="0.75" d="M56.5+52.8L56.5+53.4" fill="none" stroke-linecap="butt" opacity="1" stroke-linejoin="miter"/>
<path stroke="#000000" stroke-width="0.75" d="M58.5+48.7L58.5+49.3" fill="none" stroke-linecap="butt" opacity="1" stroke-linejoin="miter"/>
<path stroke="#000000" stroke-width="0.75" d="M62.5+51.4L62.5+52" fill="none" stroke-linecap="butt" opacity="1" stroke-linejoin="miter"/>
<path stroke="#000000" stroke-width="0.75" d="M83.4+50.9L83.4+51.5" fill="none" stroke-linecap="butt" opacity="1" stroke-linejoin="miter"/>
<path stroke="#000000" stroke-width="0.75" d="M79.8+52.9L79.8+53.6" fill="none" stroke-linecap="butt" opacity="1" stroke-linejoin="miter"/>
<path d="M88+36.5C85.7+36.1+83.3+35.9+81+36C78.2+36.3+75.4+36.8+72.7+37.5C72+37.7+71.3+37.8+70.6+37.8C69.6+37.7+68.7+37.5+67.8+37.2C65.9+36.7+64.1+36.4+62.2+36.2C60+36+57.7+36+55.5+36.1C53.4+36.3+53.1+36.5+53.1+36.7L53.4+38.8C53.6+38.8+53.7+38.9+53.9+39C54.1+39.1+54.2+39.2+54.3+39.4C54.4+39.6+55.6+43.9+55.7+44.1C55.9+44.5+56.1+45+56.4+45.3C56.9+45.8+57.6+46.2+58.2+46.5C59+46.8+59.8+47+60.6+47C61.5+47.1+62.5+47.1+63.4+46.9C64.4+46.7+65.4+46.2+66.3+45.6C67.1+44.9+67.7+44+68.2+43.1C68.5+42.5+69.4+40.4+69.5+40.2C69.8+39.9+70.2+39.7+70.6+39.7C71.1+39.7+71.5+40+71.8+40.4C72+40.9+72.8+42.8+73.4+43.8C74.1+45.2+75.4+46.3+77+46.7C78.8+47.2+80.6+47.2+82.4+46.6C83.1+46.4+83.8+46.1+84.4+45.7C84.8+45.3+85.1+44.9+85.4+44.4C85.7+43.9+86.5+40.9+86.5+40.6C86.6+40+86.8+39.5+87.1+39C87.3+38.9+87.5+38.7+87.8+38.7L88.1+36.6C88+36.6+88+36.5+88+36.5ZM66.7+42.4C66.3+43.4+65.7+44.3+65+45C63.9+45.7+62.5+46+61.2+45.9C60+45.9+58.8+45.6+57.8+45C57.1+44.7+56.7+43.7+56.4+42.8C56.1+41.6+55.9+40.3+56+39.1L56+39C56+38.6+56.2+38.3+56.4+38.1C57.2+37.3+58.6+37.3+59.6+37.3C60.8+37.2+62+37.3+63.3+37.5C64.5+37.7+67+38+67.2+39.5C67.1+40.4+67+41.4+66.7+42.4L66.7+42.4ZM84.5+42.8C84.2+43.7+83.8+44.6+83.1+45C82.1+45.6+80.9+45.8+79.7+45.8C78.4+46+77+45.7+75.9+45C75.2+44.2+74.6+43.4+74.2+42.4C73.8+41.5+73.7+40.5+73.7+39.6C73.9+38.4+75.5+37.8+76.5+37.7C77.9+37.4+79.4+37.3+80.8+37.3C81.9+37.3+83.5+37.3+84.4+38.2C84.7+38.4+84.8+38.8+84.8+39.1L84.8+39.2C84.9+40.4+84.8+41.6+84.5+42.8L84.5+42.8Z" opacity="1" fill="#000000"/>
</g>
</svg>

<?xml version="1.0" encoding="utf-8"?>
<!-- Generator: Adobe Illustrator 24.0.3, SVG Export Plug-In . SVG Version: 6.00 Build 0)  -->
<svg version="1.1" id="Layer_1" xmlns="http://www.w3.org/2000/svg" xmlns:xlink="http://www.w3.org/1999/xlink" x="0px" y="0px"
	 viewBox="0 0 125 125" style="enable-background:new 0 0 125 125;" xml:space="preserve">
<style type="text/css">
	.st0{fill:#FCE7D4;stroke:#020202;stroke-width:0.75;stroke-miterlimit:10;}
	.st1{fill:#F9F7E1;stroke:#020202;stroke-width:0.75;stroke-miterlimit:10;}
	.st2{fill:#7F500B;stroke:#020202;stroke-width:0.75;stroke-miterlimit:10;}
	.st3{fill:none;stroke:#020202;stroke-width:0.75;stroke-miterlimit:10;}
	.st4{fill:#FFFFFF;stroke:#020202;stroke-width:0.75;stroke-miterlimit:10;}
	.st5{fill:#008E19;stroke:#020202;stroke-width:0.75;stroke-miterlimit:10;}
	.st6{fill:#008E19;stroke:#020202;stroke-width:0.75;stroke-miterlimit:10.0003;}
	.st7{fill:none;stroke:#000000;stroke-width:0.75;stroke-miterlimit:10;}
</style>
<title>Artboard 25 copy 7</title>
<g id="Layer_141">
	<path class="st0" d="M48.2,79.1c1.2-0.5,3.7-3.5,3.7-3.5c0.7-2.5,1.3-5,1.7-7.5c0.3-2.7,0.7-9.9,0.7-9.9l25.2,1.2c0,0,0,7.1,0,7.9
		c0,2.7,0.1,5.3,0.4,8c0.1,2.6,1,5.2,2.7,7.2c1.2,1.2,2.5,2.3,3.9,3.3c0,0,4.4,2.3,5.6,3.1c1.1,0.7,2.2,1.3,3.4,1.8
		c0,0,3.5,7.3-0.8,13.4s-18.6,7.9-27.4,6S37.2,95.7,40.2,89.7S43.6,81.1,48.2,79.1z"/>
	<g id="turtleneck">
		<path class="st1" d="M118.2,125.6c-0.2,0-1.4-11.4-1.7-12.8c-0.5-2.6-1.2-5.1-2-7.5c-1.9-5.5-4.9-10.8-9.8-13.1
			c-3.2-1.3-6.4-2.8-9.4-4.5c-2.4-1.3-4.5-2.7-6.9-4c-1.2-0.6-1.7-1.1-2.9-1.8c-0.6-0.3-1.2-0.4-1.8-0.8s-1.1-2.1-1.5-2.5
			c-1.2-1-2-2.4-2.2-3.9c-0.1-0.5-0.3-2-0.4-2.6c0-0.2-0.4-10.4-0.2-9l-29.5-4l0.4,13.1c0,0.9-0.8,2-0.6,2.9
			c0.1,0.9-0.1,1.8-0.4,2.6c-0.5,1.5-2.6,1.7-3.9,2.6s-1.5,2.3-3,2.9s-3,1.4-4.6,2.2c-6.7,3.2-7.8,3.5-14.5,6.7
			c-0.3,0.1-0.5,0.3-0.8,0.4c-2.7,1.3-6.7,3-9.3,6.3s-4.4,18-5.1,21.7s-1.1,5-1.1,5"/>
	</g>
	<path class="st0" d="M87.8,43.7c0,0-0.3-2.2-0.3-2.3c-0.2-0.5-0.3-1-0.5-1.5c-0.1-0.2-0.2-0.4-0.2-0.6c-0.3-1.4-0.7-2.8-1-4.2
		s-0.6-2.7-0.9-4c-0.9-3.9-2.4-8.6-5.3-11.4c-1.9-1.8-4.6-2.5-7.2-2.6c-4.7-0.4-9.3,0.5-13.6,2.4c-3.7,1.9-7,4.6-9.5,8
		c-2.7,3.6-2.5,8-2,12.3c0.4,3.2,1.1,6.4,2,9.5c1.3,4.2,5.9,15.1,5.9,15.1C59,70,65.5,75.9,70.6,74.7c2.8-0.6,5.2-2.8,7.2-4.7
		c2.2-2.1,4.4-4.3,5.7-7.2c1-2.5,1.9-5.1,2.5-7.7c0.5-1.9,0.8-3.8,1-5.7c0.1-1,0.8-1.6,0.8-2.5c0-0.7,0.2-0.7,0.2-1.3
		c0-0.3-0.1-0.6-0.2-0.9c0-0.2-0.1-0.3-0.1-0.5C87.8,44,87.8,43.8,87.8,43.7z"/>
	<path class="st2" d="M79.8,73.7L89,80c0,0,4.8-19.8,4.9-28c0.1-11.4-4.4-22-9.8-30.6s-10.3-8-11.7-8.2s-2.5-0.8-3.8-0.9
		c-7.4-0.3-15.3,0.9-20.3,5.8c-4.7,4.7-10.5,14.5-10.8,21.3c-0.1,1.6-0.1,3.2-0.1,4.9c-0.1,5.3,0.3,10.6,1.1,15.9
		c0.4,2.7,3.7,10.6,5.5,12.9l0.3,0.3c1,1.2,2.2,2.3,3.5,3.2c1.5,1.2,3.1,2.3,4.8,3.4c1.2,0.8,2.4,1.6,3.6,2.4c1,0.7,1.9,1.4,2.9,2.1
		s2.2,1.3,1.6-0.5c-3-9.8-14.5-40.5-0.9-52.7c4.3-4.1,8-8.7,11.3-13.6c1.7-0.6,3.5-0.6,5.2,0.1c1.6,0.7,3,1.8,4,3.3
		c1.2,1.6,2.2,3.4,2.9,5.3c0.8,2,1.5,4,2,6c0.5,1.8,0.9,3.7,1.2,5.6c0.4,1.5,0.8,3,1,4.5c0,1.9-0.2,3.9-0.6,5.8
		c-0.3,1.9-0.7,3.7-1.1,5.6c-1.2,5.6-1.8,8.3-2.8,9.8c-1.1,1.7-2.4,3.3-3.7,4.8C79.4,68.4,79.7,73.2,79.8,73.7z"/>
	<path class="st3" d="M75.5,33.9c0,0,3.2-1.7,4.7-1.8s3.4,1.7,3.9,2.4"/>
	<path class="st4" d="M66,64.4c2.1,0.6,5-1.8,5.3-2.9s-4-0.5-6.1-1.1s-3.2-3.2-3.5-2.2S63.8,63.8,66,64.4z"/>
	<path class="st3" d="M65.2,34c0,0-2.2-3-4.3-3.6"/>
	<ellipse class="st5" cx="79.2" cy="40.7" rx="1.2" ry="2.5"/>
	
		<ellipse transform="matrix(0.9988 -4.954566e-02 4.954566e-02 0.9988 -1.9403 3.1268)" class="st6" cx="62.1" cy="40.7" rx="1.3" ry="2.3"/>
	<path id="nose-4" class="st3" d="M69,43.8c1.2,5.6,5.5,6.2,5.6,8.2c0.2,3-4.3,2.9-6.6,1.8"/>
	<line class="st7" x1="78.8" y1="48.4" x2="78.8" y2="49"/>
	<line class="st7" x1="56.5" y1="52.8" x2="56.5" y2="53.4"/>
	<line class="st7" x1="58.5" y1="48.7" x2="58.5" y2="49.3"/>
	<line class="st7" x1="62.5" y1="51.4" x2="62.5" y2="52"/>
	<line class="st7" x1="83.4" y1="50.9" x2="83.4" y2="51.5"/>
	<line class="st7" x1="79.8" y1="52.9" x2="79.8" y2="53.6"/>
	<g id="glasses-2">
		<path d="M88,36.5c-2.3-0.4-4.7-0.6-7-0.5c-2.8,0.3-5.6,0.8-8.3,1.5c-0.7,0.2-1.4,0.3-2.1,0.3c-1-0.1-1.9-0.3-2.8-0.6
			c-1.9-0.5-3.7-0.8-5.6-1C60,36,57.7,36,55.5,36.1c-2.1,0.2-2.4,0.4-2.4,0.6l0.3,2.1c0.2,0,0.3,0.1,0.5,0.2
			c0.2,0.1,0.3,0.2,0.4,0.4c0.1,0.2,1.3,4.5,1.4,4.7c0.2,0.4,0.4,0.9,0.7,1.2c0.5,0.5,1.2,0.9,1.8,1.2c0.8,0.3,1.6,0.5,2.4,0.5
			c0.9,0.1,1.9,0.1,2.8-0.1c1-0.2,2-0.7,2.9-1.3c0.8-0.7,1.4-1.6,1.9-2.5c0.3-0.6,1.2-2.7,1.3-2.9c0.3-0.3,0.7-0.5,1.1-0.5
			c0.5,0,0.9,0.3,1.2,0.7c0.2,0.5,1,2.4,1.6,3.4c0.7,1.4,2,2.5,3.6,2.9c1.8,0.5,3.6,0.5,5.4-0.1c0.7-0.2,1.4-0.5,2-0.9
			c0.4-0.4,0.7-0.8,1-1.3s1.1-3.5,1.1-3.8c0.1-0.6,0.3-1.1,0.6-1.6c0.2-0.1,0.4-0.3,0.7-0.3l0.3-2.1C88,36.6,88,36.5,88,36.5z
			 M66.7,42.4c-0.4,1-1,1.9-1.7,2.6c-1.1,0.7-2.5,1-3.8,0.9c-1.2,0-2.4-0.3-3.4-0.9c-0.7-0.3-1.1-1.3-1.4-2.2
			c-0.3-1.2-0.5-2.5-0.4-3.7V39c0-0.4,0.2-0.7,0.4-0.9c0.8-0.8,2.2-0.8,3.2-0.8c1.2-0.1,2.4,0,3.7,0.2c1.2,0.2,3.7,0.5,3.9,2
			C67.1,40.4,67,41.4,66.7,42.4L66.7,42.4z M84.5,42.8c-0.3,0.9-0.7,1.8-1.4,2.2c-1,0.6-2.2,0.8-3.4,0.8C78.4,46,77,45.7,75.9,45
			c-0.7-0.8-1.3-1.6-1.7-2.6c-0.4-0.9-0.5-1.9-0.5-2.8c0.2-1.2,1.8-1.8,2.8-1.9c1.4-0.3,2.9-0.4,4.3-0.4c1.1,0,2.7,0,3.6,0.9
			c0.3,0.2,0.4,0.6,0.4,0.9v0.1C84.9,40.4,84.8,41.6,84.5,42.8L84.5,42.8z"/>
	</g>
</g>
</svg>
